X:116
T:Jimmy Ward's
S:The session at The Golden Ace. Jenny, with Jim & Kate Smith 2/2/16
R:Reel
L:1/8
K:G
G3 GAB | AGE GED | G3 AGE | GED D3 |
G3 GAB | AGE GAB | c2A BGE | DED D3 :|
|: c2A BAG | ABA AGE | c2A BGE | DED DEG |
c2A BAG | ABA ABc | dcA AGE | GED D3 :|

%%newpage
%%scale .7
%%staffsep 35

